hosted_logos/kui.svg

<svg xmlns="http://www.w3.org/2000/svg" role="img" viewBox="60.10 49.10 150.80 65.80"><title>Kui logo</title><path fill="#fff" d="M0 0h949v448H0z"/><path d="M76.92 81.376l-3.968 5.568V100h-9.6V55.328h9.6v18.688h.512l4.864-7.424L86.2 55.328h10.752l-13.376 18.88L97.592 100H86.776L76.92 81.376zm45.223 12.608h-.384c-.725 1.8773-1.877 3.4773-3.456 4.8-1.536 1.323-3.627 1.984-6.272 1.984-1.579 0-3.029-.256-4.352-.768-1.323-.5547-2.453-1.3653-3.392-2.432-.939-1.0667-1.685-2.368-2.24-3.904-.512-1.536-.768-3.3067-.768-5.312V66.976h9.472v20.096c0 4.2667 1.856 6.4 5.568 6.4.725 0 1.429-.0853 2.112-.256.725-.2133 1.344-.512 1.856-.896.555-.4267 1.003-.9387 1.344-1.536.341-.5973.512-1.3013.512-2.112V66.976h9.472V100h-9.472v-6.016zm34.855-31.232c-2.133 0-3.627-.4267-4.48-1.28-.811-.896-1.216-1.9627-1.216-3.2v-1.856c0-1.28.405-2.3467 1.216-3.2.853-.8533 2.347-1.28 4.48-1.28 2.133 0 3.605.4267 4.416 1.28.853.8533 1.28 1.92 1.28 3.2v1.856c0 1.2373-.427 2.304-1.28 3.2-.811.8533-2.283 1.28-4.416 1.28zM141.766 92.64h10.496V74.336h-10.496v-7.36h19.968V92.64h9.728V100h-29.696v-7.36zm36.199 19.648v-7.744h30.72v7.744h-30.72z"/></svg>

<svg width="949" height="448" viewBox="0 0 949 448" fill="none" xmlns="http://www.w3.org/2000/svg">
<rect width="949" height="448" fill="white"/>
<path d="M76.92 81.376L72.952 86.944V100H63.352V55.328H72.952V74.016H73.464L78.328 66.592L86.2 55.328H96.952L83.576 74.208L97.592 100H86.776L76.92 81.376ZM122.143 93.984H121.759C121.034 95.8613 119.882 97.4613 118.303 98.784C116.767 100.107 114.676 100.768 112.031 100.768C110.452 100.768 109.002 100.512 107.679 100C106.356 99.4453 105.226 98.6347 104.287 97.568C103.348 96.5013 102.602 95.2 102.047 93.664C101.535 92.128 101.279 90.3573 101.279 88.352V66.976H110.751V87.072C110.751 91.3387 112.607 93.472 116.319 93.472C117.044 93.472 117.748 93.3867 118.431 93.216C119.156 93.0027 119.775 92.704 120.287 92.32C120.842 91.8933 121.29 91.3813 121.631 90.784C121.972 90.1867 122.143 89.4827 122.143 88.672V66.976H131.615V100H122.143V93.984ZM156.998 62.752C154.865 62.752 153.371 62.3253 152.518 61.472C151.707 60.576 151.302 59.5093 151.302 58.272V56.416C151.302 55.136 151.707 54.0693 152.518 53.216C153.371 52.3627 154.865 51.936 156.998 51.936C159.131 51.936 160.603 52.3627 161.414 53.216C162.267 54.0693 162.694 55.136 162.694 56.416V58.272C162.694 59.5093 162.267 60.576 161.414 61.472C160.603 62.3253 159.131 62.752 156.998 62.752ZM141.766 92.64H152.262V74.336H141.766V66.976H161.734V92.64H171.462V100H141.766V92.64ZM177.965 112.288V104.544H208.685V112.288H177.965Z" fill="black"/>
</svg>
